X: 38
T: Spatter the Dew
S: Fitzmaurice Collection
N: 192219
L: 1/8
M: 9/8
R: slip jig
Q: 1/4=160
K: D
FGF FEF d3 | FGF FEF AFE | FGF FEF d3 | cBA BAF AFE :|
A2c e2c d2B | A2c e2c fdB | A2c e2c d2B | cBA dAF AFE :|
FDF FdF FdF | FDF FdF AFE | FDF FdF Fdd | cBA dcB AFE :|
ecA AcA def | ecA AcA cBA |1 ecA AcA def | ecA BAF AFE :|
[2 ece Hagf edc | BAF B/c/dF AFE ||
DFA DFA def | DFA DFA AFE | DFA DFA Hd2f | edc dAF AFE :|
%%%%%
